X:1
T:Lovely Caroline\
M:4/4
L:1/4
K:G
 A,| D D F A| c2 B A| A F D E| D3 A,| D2 F G| c2 B A| A F D E| D3 A|\
 c B A B| d- e dd/2-B/2| A F D E| F3 A,| D D F/2F/2 A| c c BA/2-B/2|\
 A F D E| D3||
